X: 6424
T: Castle, The
R: jig
M: 6/8
K: Adorian
|:c2A B/c/dB|AGE DBG|A3 EDB,|DEG AGE|
c2A B/c/dB|AGE DBG|ABc ece|dBd A2B:|
|:cBA a3|bag edB|GB/c/d gfg|GAB GAB|
cBc d^cd|ede gab|age dBG|EFG A2B:|

